X: 3
T: The Hare's Paw
R: reel
M: 4/4
L: 1/8
K: Gmaj
|G2GA B2Bd|B2BA E2ED|G2GA BABd|efgf edBA|G2GA B2Bd|B2BA E3D|G2GA BABd|egfd e2ef||gfaf gfed|Bdfd B2ef|gfaf gfed|Bdef e2ef||gfaf gfed|Bdfd B2ef|bgaf gfed|efgf edBA|


Tune 1462	Setting 24281

